dist/svg/u1F530.svg

<?xml version="1.0" encoding="UTF-8"?><svg id="a" xmlns="http://www.w3.org/2000/svg" viewBox="0 0 40 40"><rect id="b" width="40" height="40" fill="#fff" opacity="0"/><g><path d="M35.422,17.677v4.037c0,5.956-7.457,11.75-14.494,15.379-.581,.3-1.274,.3-1.856,0-7.037-3.628-14.494-9.422-14.494-15.379V4.579c0-1.433,1.529-2.347,2.791-1.669l11.342,6.093c.805,.432,1.773,.432,2.577,0l11.342-6.093c1.262-.678,2.791,.236,2.791,1.669v13.098Z" fill="#ffc84d"/><path d="M35.422,21.715V4.579c0-1.433-1.529-2.347-2.791-1.669l-11.342,6.093c-.387,.208-.812,.31-1.237,.318v27.991c.301-.008,.602-.077,.877-.219,7.037-3.628,14.494-9.423,14.494-15.379Z" fill="#18a4a4"/></g></svg>

<svg id="Layer_1" data-name="Layer 1" xmlns="http://www.w3.org/2000/svg" viewBox="0 0 40 40"><defs><style>.cls-1{fill:#fff;opacity:0;}.cls-2{fill:#ffc84d;}.cls-3{fill:#18a4a4;}</style></defs><rect id="SVGID" class="cls-1" width="40" height="40"/><path class="cls-2" d="M35.422,17.677v4.038c0,5.956-7.457,11.75-14.494,15.378a2.026,2.026,0,0,1-1.856,0C12.035,33.465,4.578,27.671,4.578,21.715V4.579A1.894,1.894,0,0,1,7.369,2.91L18.711,9a2.726,2.726,0,0,0,2.578,0L32.631,2.91a1.894,1.894,0,0,1,2.791,1.669Z"/><path class="cls-3" d="M35.422,21.715V4.579A1.894,1.894,0,0,0,32.631,2.91L21.289,9a2.715,2.715,0,0,1-1.238.318V37.312a2.024,2.024,0,0,0,.877-.219C27.965,33.465,35.422,27.671,35.422,21.715Z"/></svg>
